X:150
T:Tell Her I Am
Z: id:dc-jig-126
M:6/8
L:1/8
K:G Major
d|edB GFG|DED GFG|DED cBA|BGE E2d|!
edB GFG|DED GAB|AGF GBA|GFE D2:|!
d|BAB dBG|BAB dBG|ABA AGA|BGE E2D|!
BAB deg|age d2B|cBA GBA|GFE D2:|!
d|efg efg|dBG GBd|eaa aga|bge e2d|!
[1 efg efg|dBG GBd|gfe dgb|age e2:|!
[2 def gba|gfe d2B|cBA GBA|GFE D2|]!